svgs/playsuisse.svg

<svg viewBox="0 0 192 192" xml:space="preserve" style="fill-rule:evenodd;clip-rule:evenodd;stroke-linejoin:round;stroke-miterlimit:2" xmlns="http://www.w3.org/2000/svg"><path d="M114.455 714.816H99.278c-6.623 0-12 5.377-12 12v10.368c0 6.623 5.377 12 12 12h15.177v15.177c0 6.623 5.377 12 12 12h10.368c6.623 0 12-5.377 12-12v-15.177H164c6.623 0 12-5.377 12-12v-10.368c0-6.623-5.377-12-12-12h-15.177v-15.177c0-6.623-5.377-12-12-12h-10.368c-6.623 0-12 5.377-12 12v15.177Zm-43.556 25.669c4.69-4.69 4.69-12.28 0-16.97L43.145 695.76c-4.683-4.683-12.287-4.683-16.971 0l-6.66 6.661c-4.684 4.683-4.684 12.288 0 16.971L32.122 732l-12.608 12.608c-4.684 4.683-4.684 12.288 0 16.971l6.66 6.661c4.684 4.683 12.288 4.683 16.971 0l27.754-27.755Zm65.924-40.846v21.177a6 6 0 0 0 6 6H164v10.368h-21.177a6 6 0 0 0-6 6v21.177h-10.368v-21.177a6 6 0 0 0-6-6H99.278v-10.368h21.177a6 6 0 0 0 6-6v-21.177h10.368ZM44.85 727.757l-16.851-16.85 6.661-6.661 27.753 27.755-27.753 27.753-6.661-6.661 16.851-16.85a6.001 6.001 0 0 0 0-8.486Z" style="fill-rule:evenodd;clip-rule:evenodd;stroke-linejoin:round;stroke-miterlimit:2" transform="translate(0 -636)"/></svg>

<?xml version="1.0" encoding="UTF-8" standalone="no"?>
<svg
   width="100%"
   height="100%"
   viewBox="0 0 192 192"
   version="1.1"
   xml:space="preserve"
   style="fill-rule:evenodd;clip-rule:evenodd;stroke-linejoin:round;stroke-miterlimit:2;"
   id="svg10"
   sodipodi:docname="playsuisse.svg"
   inkscape:version="1.2.1 (9c6d41e410, 2022-07-14)"
   xmlns:inkscape="http://www.inkscape.org/namespaces/inkscape"
   xmlns:sodipodi="http://sodipodi.sourceforge.net/DTD/sodipodi-0.dtd"
   xmlns="http://www.w3.org/2000/svg"
   xmlns:svg="http://www.w3.org/2000/svg"><defs
   id="defs14" /><sodipodi:namedview
   id="namedview12"
   pagecolor="#ffffff"
   bordercolor="#000000"
   borderopacity="0.25"
   inkscape:showpageshadow="2"
   inkscape:pageopacity="0.0"
   inkscape:pagecheckerboard="0"
   inkscape:deskcolor="#d1d1d1"
   showgrid="false"
   inkscape:zoom="3.1403537"
   inkscape:cx="95.689857"
   inkscape:cy="128.32949"
   inkscape:window-width="1274"
   inkscape:window-height="1303"
   inkscape:window-x="1282"
   inkscape:window-y="36"
   inkscape:window-maximized="0"
   inkscape:current-layer="svg10" />
    <path
   d="M114.455,714.816L99.278,714.816C92.655,714.816 87.278,720.193 87.278,726.816L87.278,737.184C87.278,743.807 92.655,749.184 99.278,749.184C99.278,749.184 114.455,749.184 114.455,749.184C114.455,749.184 114.455,764.361 114.455,764.361C114.455,770.984 119.832,776.361 126.455,776.361L136.823,776.361C143.446,776.361 148.823,770.984 148.823,764.361C148.823,764.361 148.823,749.184 148.823,749.184C148.823,749.184 164,749.184 164,749.184C170.623,749.184 176,743.807 176,737.184L176,726.816C176,720.193 170.623,714.816 164,714.816C164,714.816 148.823,714.816 148.823,714.816C148.823,714.816 148.823,699.639 148.823,699.639C148.823,693.016 143.446,687.639 136.823,687.639C136.823,687.639 126.455,687.639 126.455,687.639C119.832,687.639 114.455,693.016 114.455,699.639L114.455,714.816ZM70.899,740.485C75.589,735.795 75.589,728.205 70.899,723.515L43.145,695.76C38.462,691.077 30.858,691.077 26.174,695.76C26.174,695.76 19.514,702.421 19.514,702.421C14.83,707.104 14.83,714.709 19.514,719.392L32.122,732L19.514,744.608C14.83,749.291 14.83,756.896 19.514,761.579C19.514,761.579 26.174,768.24 26.174,768.24C30.858,772.923 38.462,772.923 43.145,768.24L70.899,740.485ZM136.823,699.639C136.823,699.639 136.823,720.816 136.823,720.816C136.823,724.13 139.509,726.816 142.823,726.816L164,726.816C164,726.816 164,737.184 164,737.184C164,737.184 142.823,737.184 142.823,737.184C139.509,737.184 136.823,739.87 136.823,743.184L136.823,764.361C136.823,764.361 126.455,764.361 126.455,764.361C126.455,764.361 126.455,743.184 126.455,743.184C126.455,739.87 123.769,737.184 120.455,737.184L99.278,737.184C99.278,737.184 99.278,726.816 99.278,726.816C99.278,726.816 120.455,726.816 120.455,726.816C123.769,726.816 126.455,724.13 126.455,720.816L126.455,699.639C126.455,699.639 136.823,699.639 136.823,699.639ZM44.85,727.757L27.999,710.907L34.66,704.246C34.66,704.246 62.413,732.001 62.413,732.001L34.66,759.754L27.999,753.093C27.999,753.093 44.85,736.243 44.85,736.243C47.193,733.899 47.193,730.101 44.85,727.757Z"
   id="path4"
   style="fill-rule:evenodd;clip-rule:evenodd;stroke-linejoin:round;stroke-miterlimit:2"
   transform="translate(0,-636)"
   inkscape:label="PlaySuisse-Form" />
</svg>
